X: 37073
T: Silver Spire, The
R: reel
M: 4/4
K: Dmajor
D2 FD A,DFA|dcde fdAF|G2BG FADF|(3GFE FD CEA,C|
D2 FD A,DFA||dcde fdAF|GABG FADF|1 EA,CE D2 (3A,B,C:|2 EA,CE D2 CB,||
|:A,B,CD EFGE|FDEF GABc|dBBA Bcde|fdgf eAce|
d2fd ceAc|dcdB AFDF|GABG FADF|1 EA,CE D2 CB,:|2 EA,CE D2 (3A,B,C||

